icons/farcaster.svg

<svg xmlns="http://www.w3.org/2000/svg" fill="none" viewBox="0 0 1000 1000">
  <rect width="1000" height="1000" fill="#855DCD" rx="200"/>
  <path fill="#fff" d="M257.778 155.556h484.444v688.888h-71.111V528.889h-.697c-7.86-87.212-81.156-155.556-170.414-155.556s-162.554 68.344-170.414 155.556h-.697v315.555h-71.111z"/>
  <path fill="#fff" d="m128.889 253.333 28.889 97.778h24.444v395.556c-12.273 0-22.222 9.949-22.222 22.222v26.667h-4.444c-12.273 0-22.223 9.949-22.223 22.222v26.666h248.889v-26.666c0-12.273-9.949-22.222-22.222-22.222h-4.444v-26.667c0-12.273-9.95-22.222-22.223-22.222h-26.666V253.333z"/>
  <path fill="#fff" d="M675.556 746.667c-12.273 0-22.223 9.949-22.223 22.222v26.667h-4.444c-12.273 0-22.222 9.949-22.222 22.222v26.666h248.889v-26.666c0-12.273-9.95-22.222-22.223-22.222h-4.444v-26.667c0-12.273-9.949-22.222-22.222-22.222V351.111h24.444L880 253.333H702.222v493.334z"/>
</svg>

<svg width="1000" height="1000" viewBox="0 0 1000 1000" fill="none" xmlns="http://www.w3.org/2000/svg">
<rect width="1000" height="1000" rx="200" fill="#855DCD"/>
<path d="M257.778 155.556H742.222V844.444H671.111V528.889H670.414C662.554 441.677 589.258 373.333 500 373.333C410.742 373.333 337.446 441.677 329.586 528.889H328.889V844.444H257.778V155.556Z" fill="white"/>
<path d="M128.889 253.333L157.778 351.111H182.222V746.667C169.949 746.667 160 756.616 160 768.889V795.556H155.556C143.283 795.556 133.333 805.505 133.333 817.778V844.444H382.222V817.778C382.222 805.505 372.273 795.556 360 795.556H355.556V768.889C355.556 756.616 345.606 746.667 333.333 746.667H306.667V253.333H128.889Z" fill="white"/>
<path d="M675.556 746.667C663.283 746.667 653.333 756.616 653.333 768.889V795.556H648.889C636.616 795.556 626.667 805.505 626.667 817.778V844.444H875.556V817.778C875.556 805.505 865.606 795.556 853.333 795.556H848.889V768.889C848.889 756.616 838.94 746.667 826.667 746.667V351.111H851.111L880 253.333H702.222V746.667H675.556Z" fill="white"/>
</svg>
